Newaita-dark/emblems/48/emblem-question.svg

<svg height="48" viewBox="0 0 48 48" width="48" xmlns="http://www.w3.org/2000/svg"><path d="m254.017409-233.498837c11.665553 0 21.164646 9.45743 21.164646 21.164645 0 11.707216-9.499093 21.164646-21.164646 21.164646-11.707215 0-21.164645-9.45743-21.164645-21.164646 0-11.707215 9.45743-21.164645 21.164645-21.164645zm0 0" fill="#fafafa" stroke="#424242" stroke-linecap="round" stroke-linejoin="round" stroke-width="82" transform="matrix(.093759 0 0 -.093759 0 20.158175)"/><path d="m23.746094 42.050781h.136718c1.058594 0 1.917969-.859375 1.917969-1.921875v-.125c0-1.0625-.859375-1.921875-1.917969-1.921875h-.136718c-1.058594 0-1.914063.859375-1.914063 1.921875v.125c0 1.0625.855469 1.921875 1.914063 1.921875zm0 0" fill="#fafafa"/><path d="m253.850758-138.007352c-67.201915-.083326-93.574397 67.493554-93.574397 67.493554-2.833063 7.040995-1.666507 15.081893 3.041376 20.997995 4.707884 5.957764 12.290493 8.915815 19.748114 7.707597 7.499284-1.166555 13.79035-6.249403 16.456762-13.373723 0 0 15.915147-40.662783 54.161495-40.704446 43.120882.541615 58.577739 26.914097 58.619402 54.078169 0 13.582037-4.832872 26.872434-14.040326 36.538178-9.207454 9.665743-22.706165 16.623412-44.245775 16.623412-11.665552 0-21.08132 9.415768-21.08132 21.08132v42.329292c-.124988 7.582609 3.87463 14.665266 10.457335 18.498233 6.541042 3.832967 14.665266 3.832967 21.247971 0 6.541042-3.832967 10.54066-10.915624 10.415672-18.498233v-23.164455c22.039562-3.957955 40.496133-13.915338 53.744867-27.830676 17.248353-18.164932 25.622553-41.995989 25.622553-65.618733-.041662-47.162163-37.538081-95.449219-100.365415-96.157484-.083325 0-.166651 0-.208314 0zm0 0" fill="none" stroke="#424242" stroke-linecap="round" stroke-linejoin="round" stroke-width="82" transform="matrix(.093759 0 0 .093759 0 20.158175)"/><path d="m23.800781 7.21875c-6.300781-.007812-8.773437 6.328125-8.773437 6.328125-.265625.660156-.15625 1.414063.285156 1.96875.441406.558594 1.152344.835937 1.851562.722656.703126-.109375 1.292969-.585937 1.542969-1.253906 0 0 1.492188-3.8125 5.078125-3.816406 4.042969.050781 5.492188 2.523437 5.496094 5.070312 0 1.273438-.453125 2.519531-1.316406 3.425781-.863282.90625-2.128906 1.558594-4.148438 1.558594-1.09375 0-1.976562.882813-1.976562 1.976563v3.96875c-.011719.710937.363281 1.375.980468 1.734375.613282.359375 1.375.359375 1.992188 0 .613281-.359375.988281-1.023438.976562-1.734375v-2.171875c2.066407-.371094 3.796876-1.304688 5.039063-2.609375 1.617187-1.703125 2.402344-3.9375 2.402344-6.152344-.003907-4.421875-3.519531-8.949219-9.410157-9.015625-.007812 0-.015624 0-.019531 0zm0 0" fill="#fafafa"/></svg>

<?xml version="1.0" encoding="UTF-8"?>
<svg xmlns="http://www.w3.org/2000/svg" xmlns:xlink="http://www.w3.org/1999/xlink" width="48px" height="48px" viewBox="0 0 48 48" version="1.1">
<g id="surface1">
<path style="fill-rule:nonzero;fill:rgb(98.039216%,98.039216%,98.039216%);fill-opacity:1;stroke-width:82;stroke-linecap:round;stroke-linejoin:round;stroke:rgb(25.882354%,25.882354%,25.882354%);stroke-opacity:1;stroke-miterlimit:4;" d="M 254.017409 -233.498837 C 265.682962 -233.498837 275.182055 -224.041407 275.182055 -212.334192 C 275.182055 -200.626976 265.682962 -191.169546 254.017409 -191.169546 C 242.310194 -191.169546 232.852764 -200.626976 232.852764 -212.334192 C 232.852764 -224.041407 242.310194 -233.498837 254.017409 -233.498837 Z M 254.017409 -233.498837 " transform="matrix(0.093759,0,0,-0.093759,0,20.158175)"/>
<path style=" stroke:none;fill-rule:nonzero;fill:rgb(98.039216%,98.039216%,98.039216%);fill-opacity:1;" d="M 23.746094 42.050781 L 23.882812 42.050781 C 24.941406 42.050781 25.800781 41.191406 25.800781 40.128906 L 25.800781 40.003906 C 25.800781 38.941406 24.941406 38.082031 23.882812 38.082031 L 23.746094 38.082031 C 22.6875 38.082031 21.832031 38.941406 21.832031 40.003906 L 21.832031 40.128906 C 21.832031 41.191406 22.6875 42.050781 23.746094 42.050781 Z M 23.746094 42.050781 "/>
<path style="fill:none;stroke-width:82;stroke-linecap:round;stroke-linejoin:round;stroke:rgb(25.882354%,25.882354%,25.882354%);stroke-opacity:1;stroke-miterlimit:4;" d="M 253.850758 -138.007352 C 186.648843 -138.090678 160.276361 -70.513798 160.276361 -70.513798 C 157.443298 -63.472803 158.609854 -55.431905 163.317737 -49.515803 C 168.025621 -43.558039 175.60823 -40.599988 183.065851 -41.808206 C 190.565135 -42.974761 196.856201 -48.057609 199.522613 -55.181929 C 199.522613 -55.181929 215.43776 -95.844712 253.684108 -95.886375 C 296.80499 -95.34476 312.261847 -68.972278 312.30351 -41.808206 C 312.30351 -28.226169 307.470638 -14.935772 298.263184 -5.270028 C 289.05573 4.395715 275.557019 11.353384 254.017409 11.353384 C 242.351857 11.353384 232.936089 20.769152 232.936089 32.434704 L 232.936089 74.763996 C 232.811101 82.346605 236.810719 89.429262 243.393424 93.262229 C 249.934466 97.095196 258.05869 97.095196 264.641395 93.262229 C 271.182437 89.429262 275.182055 82.346605 275.057067 74.763996 L 275.057067 51.599541 C 297.096629 47.641586 315.5532 37.684203 328.801934 23.768865 C 346.050287 5.603933 354.424487 -18.227124 354.424487 -41.849868 C 354.382825 -89.012031 316.886406 -137.299087 254.059072 -138.007352 C 253.975747 -138.007352 253.892421 -138.007352 253.850758 -138.007352 Z M 253.850758 -138.007352 " transform="matrix(0.093759,0,0,0.093759,0,20.158175)"/>
<path style=" stroke:none;fill-rule:nonzero;fill:rgb(98.039216%,98.039216%,98.039216%);fill-opacity:1;" d="M 23.800781 7.21875 C 17.5 7.210938 15.027344 13.546875 15.027344 13.546875 C 14.761719 14.207031 14.871094 14.960938 15.3125 15.515625 C 15.753906 16.074219 16.464844 16.351562 17.164062 16.238281 C 17.867188 16.128906 18.457031 15.652344 18.707031 14.984375 C 18.707031 14.984375 20.199219 11.171875 23.785156 11.167969 C 27.828125 11.21875 29.277344 13.691406 29.28125 16.238281 C 29.28125 17.511719 28.828125 18.757812 27.964844 19.664062 C 27.101562 20.570312 25.835938 21.222656 23.816406 21.222656 C 22.722656 21.222656 21.839844 22.105469 21.839844 23.199219 L 21.839844 27.167969 C 21.828125 27.878906 22.203125 28.542969 22.820312 28.902344 C 23.433594 29.261719 24.195312 29.261719 24.8125 28.902344 C 25.425781 28.542969 25.800781 27.878906 25.789062 27.167969 L 25.789062 24.996094 C 27.855469 24.625 29.585938 23.691406 30.828125 22.386719 C 32.445312 20.683594 33.230469 18.449219 33.230469 16.234375 C 33.226562 11.8125 29.710938 7.285156 23.820312 7.21875 C 23.8125 7.21875 23.804688 7.21875 23.800781 7.21875 Z M 23.800781 7.21875 "/>
</g>
</svg>
